workspaces/osm/styles/symbols/helipad.16.svg

<?xml version="1.0" encoding="utf-8"?>
<svg xmlns="http://www.w3.org/2000/svg" width="16" height="16" viewBox="0 0 16 16">
	<rect
     width="16"
     height="16"
     x="0"
     y="0"
     id="canvas"
     style="fill:none;stroke:none;visibility:hidden" />
	<path fill-rule="evenodd" d="M 8 0.5 C 3.8578644 0.5 0.5 3.8579 0.5 8 C 0.5 12.1421 3.8578644 15.5 8 15.5 C 12.142136 15.5 15.5 12.1421 15.5 8 C 15.5 3.8579 12.142136 0.5 8 0.5 z M 8 1.5 C 11.589851 1.5 14.5 4.4101491 14.5 8 C 14.5 11.589851 11.589851 14.5 8 14.5 C 4.4101491 14.5 1.5 11.589851 1.5 8 C 1.5 4.4101491 4.4101491 1.5 8 1.5 z M 5 3 L 4.25 3.75 L 4.25 12.25 C 4.25 12.2501 4.9999904 13 5 13 L 6 13 L 6 9 L 10 9 L 10 13 L 11 13 L 11.75 12.25 L 11.75 3.75 L 11 3 L 10 3 L 10 7 L 6 7 L 6 3 L 5 3 z"/>
</svg>

<svg width="16" height="16" version="1.1" viewBox="0 0 16 16" xmlns="http://www.w3.org/2000/svg"><rect id="a" width="16" height="16" fill="none" visibility="hidden"/><path d="m8 0.5c-2.3611-0.018807-4.6872 1.1665-6.0636 3.0852-1.4284 1.9263-1.8225 4.5553-1.0424 6.8203 0.78694 2.3763 2.8441 4.2771 5.2766 4.8698 2.2422 0.57454 4.7369 0.03702 6.5303-1.431 1.8198-1.4418 2.887-3.7669 2.7953-6.086-0.057171-2.4008-1.3622-4.7228-3.378-6.0274-1.2133-0.80253-2.6637-1.2345-4.1182-1.2308zm0 1c2.2329-0.023219 4.4164 1.2136 5.559 3.1295 1.2515 2.0167 1.2515 4.7243 0 6.741-1.1426 1.916-3.326 3.1527-5.559 3.1295-2.2329 0.023219-4.4164-1.2136-5.559-3.1295-1.2515-2.0167-1.2515-4.7243 0-6.741 1.148-1.9194 3.3198-3.15 5.559-3.1295zm-3 1.5-0.75 0.75v8.5c0.26036 0.24313 0.50138 0.53307 0.77263 0.75h0.97737v-4h4v4h1l0.75-0.75v-8.5l-0.75-0.75h-1v4h-4v-4h-1z" fill-rule="evenodd"/></svg>
